static/assets/images/tokens/lseth.svg

<svg width="256" height="256" viewBox="0 0 256 256" fill="none" xmlns="http://www.w3.org/2000/svg">
<path d="M128 256C198.692 256 256 198.692 256 128C256 57.3075 198.692 0 128 0C57.3075 0 0 57.3075 0 128C0 198.692 57.3075 256 128 256Z" fill="#DCE474"/>
<path d="M229.99 128.245C229.99 120.198 226.861 112.632 221.166 106.947C215.604 101.385 208.242 98.2871 200.4 98.1542C205.635 92.7352 208.876 85.3736 208.876 77.2554C208.876 60.6406 195.359 47.1238 178.745 47.1238C170.637 47.1238 163.275 50.365 157.846 55.5999C157.713 47.7577 154.615 40.3961 149.053 34.834C143.358 29.1287 135.792 26 127.745 26C119.698 26 112.132 29.1287 106.437 34.8237C100.875 40.3859 97.7769 47.7475 97.6338 55.5897C92.2148 50.3547 84.8532 47.1238 76.7451 47.1238C60.1303 47.1238 46.6136 60.6406 46.6136 77.2554C46.6136 85.3634 49.8547 92.725 55.0897 98.1542C47.2475 98.2871 39.8859 101.385 34.3237 106.947C28.6287 112.632 25.5 120.198 25.5 128.245C25.5 136.292 28.6287 143.858 34.3237 149.553C39.8859 155.115 47.2475 158.213 55.0897 158.356C49.8547 163.775 46.6238 171.137 46.6238 179.245C46.6238 195.859 60.1406 209.376 76.7554 209.376C84.8634 209.376 92.225 206.135 97.644 200.91C97.7769 208.753 100.875 216.114 106.447 221.676C112.02 227.238 119.708 230.5 127.755 230.5C135.802 230.5 143.368 227.361 149.053 221.676C154.615 216.114 157.713 208.753 157.846 200.9C163.265 206.135 170.626 209.376 178.745 209.376C195.359 209.376 208.876 195.859 208.876 179.245C208.876 171.137 205.635 163.775 200.41 158.356C208.253 158.223 215.614 155.125 221.176 149.553C226.871 143.858 230 136.292 230 128.245H229.99ZM148.613 149.113V178.631L127.745 157.763L106.877 178.631V149.113H77.3688L98.237 128.245L77.3688 107.377H106.877V77.8688L127.745 98.737L148.613 77.8688V107.377H178.121L157.253 128.245L178.121 149.113H148.613ZM159.379 77.2554C159.379 66.581 168.07 57.8902 178.745 57.8902C189.419 57.8902 198.11 66.581 198.11 77.2554C198.11 87.9297 189.419 96.6205 178.745 96.6205H159.379V77.2554ZM114.054 42.4308C117.827 38.6579 122.786 36.7664 127.745 36.7664C132.704 36.7664 137.663 38.6579 141.435 42.4308C148.981 49.9866 148.981 62.2663 141.435 69.8222L127.745 83.5127L114.054 69.8222C110.394 66.1618 108.38 61.3052 108.38 56.1316C108.38 50.958 110.394 46.1013 114.054 42.441V42.4308ZM76.7554 57.88C87.4297 57.88 96.1205 66.5708 96.1205 77.2451V96.6103H76.7554C66.081 96.6103 57.3902 87.9195 57.3902 77.2451C57.3902 66.5708 66.081 57.88 76.7554 57.88ZM41.9308 114.554C45.7036 110.781 50.6625 108.89 55.6213 108.89C60.5802 108.89 65.5391 110.781 69.3119 114.554L83.0025 128.245L69.3119 141.935C65.6516 145.596 60.7949 147.61 55.6213 147.61C50.4478 147.61 45.5911 145.596 41.9308 141.935C34.3851 134.38 34.3851 122.1 41.9308 114.544V114.554ZM96.1103 179.245C96.1103 189.919 87.4195 198.61 76.7451 198.61C66.0708 198.61 57.38 189.919 57.38 179.245C57.38 168.57 66.0708 159.879 76.7451 159.879H96.1103V179.245ZM141.435 214.059C133.88 221.615 121.6 221.605 114.044 214.059C106.498 206.503 106.498 194.224 114.044 186.668L127.735 172.977L141.425 186.668C145.086 190.328 147.1 195.185 147.1 200.358C147.1 205.532 145.086 210.399 141.425 214.049L141.435 214.059ZM192.425 192.935C188.765 196.585 183.908 198.61 178.734 198.61C168.06 198.61 159.369 189.919 159.369 179.245V159.879H178.734C183.908 159.879 188.765 161.894 192.425 165.554C196.085 169.214 198.1 174.071 198.1 179.245C198.1 184.418 196.085 189.285 192.425 192.935ZM213.549 141.946C209.888 145.606 205.032 147.62 199.858 147.62C194.685 147.62 189.818 145.606 186.168 141.946L172.477 128.255L186.168 114.565C193.724 107.009 206.003 107.019 213.559 114.565C221.105 122.12 221.105 134.4 213.559 141.956L213.549 141.946Z" fill="black"/>
</svg>

<svg xmlns="http://www.w3.org/2000/svg" fill="none" viewBox="0 0 256 256"><path fill="#DCE474" d="M128 256c70.692 0 128-57.308 128-128S198.692 0 128 0 0 57.308 0 128s57.308 128 128 128"/><path fill="#000" d="M229.99 128.245c0-8.047-3.129-15.613-8.824-21.298-5.562-5.562-12.924-8.66-20.766-8.793 5.235-5.419 8.476-12.78 8.476-20.899 0-16.614-13.517-30.131-30.131-30.131-8.108 0-15.47 3.241-20.899 8.476-.133-7.842-3.231-15.204-8.793-20.766C143.358 29.129 135.792 26 127.745 26s-15.613 3.129-21.308 8.824c-5.562 5.562-8.66 12.924-8.803 20.766-5.42-5.235-12.78-8.466-20.889-8.466-16.615 0-30.131 13.517-30.131 30.131 0 8.108 3.24 15.47 8.476 20.9-7.843.132-15.204 3.23-20.766 8.792-5.695 5.685-8.824 13.251-8.824 21.298s3.129 15.613 8.824 21.308c5.562 5.562 12.924 8.66 20.766 8.803-5.235 5.419-8.466 12.781-8.466 20.889 0 16.614 13.517 30.131 30.131 30.131 8.108 0 15.47-3.241 20.889-8.466.133 7.843 3.231 15.204 8.803 20.766s13.261 8.824 21.308 8.824 15.613-3.139 21.298-8.824c5.562-5.562 8.66-12.923 8.793-20.776 5.419 5.235 12.78 8.476 20.899 8.476 16.614 0 30.131-13.517 30.131-30.131 0-8.108-3.241-15.47-8.466-20.889 7.843-.133 15.204-3.231 20.766-8.803 5.695-5.695 8.824-13.261 8.824-21.308zm-81.377 20.868v29.518l-20.868-20.868-20.868 20.868v-29.518H77.369l20.868-20.868-20.868-20.868h29.508V77.869l20.868 20.868 20.868-20.868v29.508h29.508l-20.868 20.868 20.868 20.868zm10.766-71.858c0-10.674 8.691-19.365 19.366-19.365s19.365 8.691 19.365 19.365c0 10.675-8.691 19.366-19.365 19.366h-19.366zm-45.325-34.824a19.3 19.3 0 0 1 13.691-5.665c4.959 0 9.918 1.892 13.69 5.665 7.546 7.556 7.546 19.835 0 27.391l-13.69 13.69-13.691-13.69a19.23 19.23 0 0 1-5.674-13.69c0-5.174 2.014-10.03 5.674-13.691zM76.755 57.88c10.675 0 19.366 8.69 19.366 19.365V96.61H76.755c-10.674 0-19.365-8.69-19.365-19.365S66.081 57.88 76.755 57.88m-34.824 56.674a19.3 19.3 0 0 1 13.69-5.664 19.3 19.3 0 0 1 13.69 5.664l13.691 13.691-13.69 13.69a19.22 19.22 0 0 1-13.69 5.675 19.22 19.22 0 0 1-13.691-5.675c-7.546-7.555-7.546-19.835 0-27.391zm54.18 64.691c0 10.674-8.692 19.365-19.366 19.365s-19.365-8.691-19.365-19.365c0-10.675 8.69-19.366 19.365-19.366H96.11zm45.324 34.814c-7.555 7.556-19.835 7.546-27.391 0-7.546-7.556-7.546-19.835 0-27.391l13.691-13.691 13.69 13.691a19.22 19.22 0 0 1 5.675 13.69c0 5.174-2.014 10.041-5.675 13.691zm50.99-21.124c-3.66 3.65-8.517 5.675-13.691 5.675-10.674 0-19.365-8.691-19.365-19.365v-19.366h19.365a19.23 19.23 0 0 1 13.691 5.675 19.23 19.23 0 0 1 5.675 13.691 19.2 19.2 0 0 1-5.675 13.69m21.124-50.989a19.23 19.23 0 0 1-13.691 5.674c-5.173 0-10.04-2.014-13.69-5.674l-13.691-13.691 13.691-13.69c7.556-7.556 19.835-7.546 27.391 0 7.546 7.555 7.546 19.835 0 27.391z"/></svg>
